X: 1
T: Marten Haggs
R: waltz
M: 3/4
L: 1/8
K: Gmaj
|:d2|gf af c2|cB dB GB|B2 Ac AF|G2 Bd g2|
gf af c2|cB dB GB|BA Ac AF|G2 G2:|
|:D|F2 Ac AF|G2 Bd BG|F2 Ac AF|G2 Bd B2|
c2 eg ec|cB dB GB|BA Ac AF|G2 G2:|
|:B|c2 Ac BA|B2 GB AG|FA Ad fa|g2 bg dB|
c2 Ac BA|B2 GB AG|FA Ad fa|g2 g2:|

